img/icon-license-8.svg

<svg fill="none" height="15" viewBox="0 0 16 15" width="16" xmlns="http://www.w3.org/2000/svg"><path clip-rule="evenodd" d="m8.74991.972656c0-.198912-.07902-.389678-.21967-.53033-.14066-.140652-.33142-.21967-.53033-.21967-.19892 0-.38968.079018-.53033.21967-.14066.140652-.21967.331418-.21967.53033v1.250004h-.984c-.305 0-.604.08-.869.23l-1.288.737c-.03806.02177-.08116.03315-.125.033h-2.234c-.19892 0-.38968.07901-.53033.21967-.14066.14065-.219673.33141-.219673.53033 0 .19891.079013.38967.219673.53033.14065.14065.33141.21967.53033.21967h.428l-2.1120034 4.692c-.06238195.13881-.0810601.29331-.0535537.44299.0275064.14965.0998951.28745.2075541.39505l.53-.53004-.53.53004v.001l.002.002.002.002.006.006.016.015.045.04c.210311.1762.440547.3273.686.45.629703.307 1.322493.4624 2.023003.454.88 0 1.556-.22 2.023-.454.24544-.1228.47568-.2738.686-.45l.045-.04.016-.015.006-.006.002-.002.001-.002-.529-.53104.53.53004c.10766-.1076.18004-.2454.20755-.39505.02751-.14968.00883-.30418-.05355-.44299l-2.112-4.692h.162c.305 0 .604-.08.869-.23l1.289-.737c.03776-.0216.0805-.03298.124-.033h.984v9.50004h-2.5c-.19892 0-.38968.079-.53033.2196-.14066.1407-.21967.3314-.21967.5304 0 .1989.07901.3896.21967.5303.14065.1406.33141.2197.53033.2197h6.49999c.1989 0 .3897-.0791.5303-.2197.1407-.1407.2197-.3314.2197-.5303 0-.199-.079-.3897-.2197-.5304-.1406-.1406-.3314-.2196-.5303-.2196h-2.49999v-9.50004h.984c.0435.00002.08624.0114.124.033l1.28999.736c.264.152.563.231.868.231h.162l-2.112 4.692c-.0624.13881-.08105.29331-.0535.44299.0275.14965.0998.28745.2075.39505l.53-.53004-.53.53004v.001l.002.002.002.002.006.006.016.015.045.04c.2103.1762.4406.3272.686.45.6297.307 1.3225.4624 2.023.454.88 0 1.556-.22 2.023-.454.2455-.1227.4757-.2738.686-.45l.045-.04.01-.01.006-.005.006-.006.002-.002.001-.002-.529-.53104.53.53004c.1077-.1076.1801-.2454.2076-.39505.0275-.14968.0088-.30418-.0536-.44299l-2.111-4.692h.427c.1989 0 .3897-.07902.5303-.21967.1407-.14066.2197-.33142.2197-.53033 0-.19892-.079-.38968-.2197-.53033-.1406-.14066-.3314-.21967-.5303-.21967h-2.234c-.0435-.00003-.0862-.0114-.124-.033l-1.29-.736c-.264-.15104-.5628-.23066-.86699-.231h-.985zm-7.055 8.477004c.285.135.718.273 1.305.273s1.02-.138 1.305-.273l-1.305-2.9zm9.99999 0c.285.135.718.273 1.305.273s1.02-.138 1.305-.273l-1.305-2.9z" fill="#000" fill-rule="evenodd"/></svg>

<svg width="16" height="15" viewBox="0 0 16 15" fill="none" xmlns="http://www.w3.org/2000/svg">
<path fill-rule="evenodd" clip-rule="evenodd" d="M8.74991 0.972656C8.74991 0.773744 8.67089 0.582978 8.53024 0.442326C8.38958 0.301674 8.19882 0.222656 7.99991 0.222656C7.80099 0.222656 7.61023 0.301674 7.46958 0.442326C7.32892 0.582978 7.24991 0.773744 7.24991 0.972656V2.22266H6.26591C5.96091 2.22266 5.66191 2.30266 5.39691 2.45266L4.10891 3.18966C4.07085 3.21143 4.02775 3.22281 3.98391 3.22266H1.74991C1.55099 3.22266 1.36023 3.30167 1.21958 3.44233C1.07892 3.58298 0.999907 3.77374 0.999907 3.97266C0.999907 4.17157 1.07892 4.36233 1.21958 4.50299C1.36023 4.64364 1.55099 4.72266 1.74991 4.72266H2.17791L0.0659066 9.41466C0.00352465 9.55347 -0.0151535 9.70797 0.0123529 9.85765C0.0398593 10.0073 0.112248 10.1451 0.219907 10.2527L0.749907 9.72266L0.219907 10.2527V10.2537L0.221907 10.2557L0.223907 10.2577L0.229907 10.2637L0.245907 10.2787L0.290907 10.3187C0.501218 10.4949 0.731454 10.646 0.976907 10.7687C1.60661 11.0757 2.2994 11.2311 2.99991 11.2227C3.87991 11.2227 4.55591 11.0027 5.02291 10.7687C5.26835 10.6459 5.49859 10.4949 5.70891 10.3187L5.75391 10.2787L5.76991 10.2637L5.77591 10.2577L5.77791 10.2557L5.77891 10.2537L5.24991 9.72266L5.77991 10.2527C5.88757 10.1451 5.95995 10.0073 5.98746 9.85765C6.01497 9.70797 5.99629 9.55347 5.93391 9.41466L3.82191 4.72266H3.98391C4.28891 4.72266 4.58791 4.64266 4.85291 4.49266L6.14191 3.75566C6.17967 3.73406 6.22241 3.72268 6.26591 3.72266H7.24991V13.2227H4.74991C4.55099 13.2227 4.36023 13.3017 4.21958 13.4423C4.07892 13.583 3.99991 13.7737 3.99991 13.9727C3.99991 14.1716 4.07892 14.3623 4.21958 14.503C4.36023 14.6436 4.55099 14.7227 4.74991 14.7227H11.2499C11.4488 14.7227 11.6396 14.6436 11.7802 14.503C11.9209 14.3623 11.9999 14.1716 11.9999 13.9727C11.9999 13.7737 11.9209 13.583 11.7802 13.4423C11.6396 13.3017 11.4488 13.2227 11.2499 13.2227H8.74991V3.72266H9.73391C9.77741 3.72268 9.82015 3.73406 9.85791 3.75566L11.1479 4.49166C11.4119 4.64366 11.7109 4.72266 12.0159 4.72266H12.1779L10.0659 9.41466C10.0035 9.55347 9.98485 9.70797 10.0124 9.85765C10.0399 10.0073 10.1122 10.1451 10.2199 10.2527L10.7499 9.72266L10.2199 10.2527V10.2537L10.2219 10.2557L10.2239 10.2577L10.2299 10.2637L10.2459 10.2787L10.2909 10.3187C10.5012 10.4949 10.7315 10.6459 10.9769 10.7687C11.6066 11.0757 12.2994 11.2311 12.9999 11.2227C13.8799 11.2227 14.5559 11.0027 15.0229 10.7687C15.2684 10.646 15.4986 10.4949 15.7089 10.3187L15.7539 10.2787L15.7639 10.2687L15.7699 10.2637L15.7759 10.2577L15.7779 10.2557L15.7789 10.2537L15.2499 9.72266L15.7799 10.2527C15.8876 10.1451 15.96 10.0073 15.9875 9.85765C16.015 9.70797 15.9963 9.55347 15.9339 9.41466L13.8229 4.72266H14.2499C14.4488 4.72266 14.6396 4.64364 14.7802 4.50299C14.9209 4.36233 14.9999 4.17157 14.9999 3.97266C14.9999 3.77374 14.9209 3.58298 14.7802 3.44233C14.6396 3.30167 14.4488 3.22266 14.2499 3.22266H12.0159C11.9724 3.22263 11.9297 3.21126 11.8919 3.18966L10.6019 2.45366C10.3379 2.30262 10.0391 2.223 9.73491 2.22266H8.74991V0.972656ZM1.69491 9.44966C1.97991 9.58466 2.41291 9.72266 2.99991 9.72266C3.58691 9.72266 4.01991 9.58466 4.30491 9.44966L2.99991 6.54966L1.69491 9.44966ZM11.6949 9.44966C11.9799 9.58466 12.4129 9.72266 12.9999 9.72266C13.5869 9.72266 14.0199 9.58466 14.3049 9.44966L12.9999 6.54966L11.6949 9.44966Z" fill="black"/>
</svg>
